svg/24/text-size.svg

<svg width="24" height="24" viewBox="0 0 24 24" fill="currentColor" xmlns="http://www.w3.org/2000/svg"><path fill-rule="evenodd" clip-rule="evenodd" d="M14.8029 4.47353C14.9162 4.18769 15.1926 4 15.5001 4C15.8076 4 16.0839 4.18769 16.1973 4.47353L21.9473 18.9735C22.1 19.3586 21.9116 19.7945 21.5265 19.9472C21.1415 20.0999 20.7056 19.9115 20.5529 19.5265L18.9562 15.5H12.044L10.4478 19.5252C10.3744 19.7112 10.2271 19.8676 10.0265 19.9472C9.6415 20.0999 9.20558 19.9115 9.05289 19.5265L8.24929 17.5H4.25086L3.44726 19.5265C3.29457 19.9115 2.85865 20.0999 2.47361 19.9472C2.08856 19.7945 1.9002 19.3586 2.05289 18.9735L5.55289 10.1474C5.66624 9.8616 5.94258 9.67391 6.25008 9.67391C6.55757 9.67391 6.83391 9.8616 6.94726 10.1474L9.75008 17.2154L14.8029 4.47353ZM4.84569 16H7.65447L6.25008 12.4585L4.84569 16ZM18.3614 14L15.5001 6.78458L12.6388 14H18.3614Z"/></svg>

<svg xmlns="http://www.w3.org/2000/svg" width="24" height="24" fill="currentColor" viewBox="0 0 24 24">
  <path fill-rule="evenodd" d="M14.803 4.474a.75.75 0 0 1 1.394 0l5.75 14.5a.75.75 0 1 1-1.394.552L18.956 15.5h-6.912l-1.596 4.025a.749.749 0 0 1-1.395.002L8.249 17.5H4.251l-.804 2.026a.75.75 0 0 1-1.394-.552l3.5-8.827a.75.75 0 0 1 1.394 0l2.803 7.068 5.053-12.741ZM4.846 16h2.808L6.25 12.459 4.846 16Zm13.515-2L15.5 6.785 12.639 14h5.722Z" clip-rule="evenodd"/>
</svg>
